src/icons/icons_set_02/017-telechargement.svg

<svg height="50" viewBox="0 0 50 50" width="50" xmlns="http://www.w3.org/2000/svg"><path d="m23.5 25.8032955 6.984673-8.1085863 3.030654 2.6105816-11.8286238 13.7319839-12.18173049-13.7087818 2.99005459-2.6569858 7.0049727 7.8830871v-25.5545942h4zm15.5 2.905195h4v13.2915095h-42.15625v-13.2915095h4v9.2915095h34.15625z" transform="translate(3 4)"/></svg>

<?xml version="1.0" encoding="UTF-8"?>
<svg width="50px" height="50px" viewBox="0 0 50 50" version="1.1" xmlns="http://www.w3.org/2000/svg" xmlns:xlink="http://www.w3.org/1999/xlink">
    <!-- Generator: Sketch 52.2 (67145) - http://www.bohemiancoding.com/sketch -->
    <title>017-telechargement</title>
    <desc>Created with Sketch.</desc>
    <g id="017-telechargement" stroke="none" stroke-width="1" fill="none" fill-rule="evenodd">
        <g id="Group" transform="translate(3.000000, 4.000000)" fill="#000000" fill-rule="nonzero">
            <g id="023-telechargement">
                <g id="ICONSET-01">
                    <g id="023-telechargement">
                        <g id="Group-2-Copy">
                            <path d="M23.5,25.8032955 L30.484673,17.6947092 L33.515327,20.3052908 L21.6867032,34.0372747 L9.50497271,20.3284929 L12.4950273,17.6715071 L19.5,25.5545942 L19.5,0 L23.5,0 L23.5,25.8032955 Z M39,28.7084905 L43,28.7084905 L43,42 L0.84375,42 L0.84375,28.7084905 L4.84375,28.7084905 L4.84375,38 L39,38 L39,28.7084905 Z" id="Combined-Shape"></path>
                        </g>
                    </g>
                </g>
            </g>
        </g>
    </g>
</svg>
